X: 42683
T: Whistler At The Wake, The
R: jig
M: 6/8
K: Dmajor
F2A AFA|Bcd efg|fed BdB|AFE EDE|
F2A AFA|Bcd efg|fed BdB|AFD D2:|
fed BdB|AFE EDB|A3 ABF|ABF AFA|
fed BdB|AFE EFA|fed BdB|AFD D2:|

